src/assets/images/file.svg

<svg xmlns="http://www.w3.org/2000/svg" viewBox="0 0 50 50" width="50px" height="50px">
  <path d="M 7 2 L 7 48 L 43 48 L 43 14.59375 L 42.71875 14.28125 L 30.71875 2.28125 L 30.40625 2 Z M 9 4 L 29 4 L 29 16 L 41 16 L 41 46 L 9 46 Z M 31 5.4375 L 39.5625 14 L 31 14 Z" fill="rgb(152, 152, 152)"/>
</svg>

<svg xmlns="http://www.w3.org/2000/svg" width="50" height="50"><path fill="#989898" d="M7 2v46h36V14.594l-.281-.313-12-12L30.406 2Zm2 2h20v12h12v30H9Zm22 1.438L39.563 14H31Z"/></svg>
